X: 12042
T: Lady Macbeth's Dream
%R: air
B: James Oswald "The Caledonian Pocket Companion" v.1 b.1 p.4 #2
Z: 2020 John Chambers <jc:trillian.mit.edu>
N: There are no initial-repeat signs to match the 1st/2nd endings.
N: The 2nd strain has just '||' between the endings, with no ':'.
M: 6/8
L: 1/8
K: D
|: "_Slow"\
f>ed a>gf | f>ge d3 | f>ga b2a | a>gf {f}e3 ::\
(e2f) (g2f) | a>gf e2A |
(d2e) (f2g) | Tf>ed a3- |\
a6- | a6 | f>ga b2d | f>ge d3- |\
d6- | d6 | "_p.o"F>GA B2D | F>GE D3 :|


